X: 4
T: Franc A'Phoill
R: jig
M: 6/8
L: 1/8
K: Dmaj
A2G ABG | ~A2G FED | A2G ABF | ~G3 AFD |
A2G ABG | ~A2G FED | GAB =cAF |1 ~G3 GFG :| 2~G3 AFD ||
dfa afd | def ecA | GAB =cAF | ~G3 AFD |
dfa afa | geg fdA | GAB =cAF | ~G3 AFD:|
d2e d2A | d2e d=cA | d2e d=cA | GFG AFD |
d2e d2A | d2e dcA | GAB =cAF | ~G3 AFD :|
def def | def ecA | def ecA | GFG AFD |
def d2A | def ecA | GAB cAF | ~G3 AFD :|
dDD cDD | BDD ADD | dDD cDD | ~G3 AFD |
dDD cDD | BDD ADD | GAB cAF |1 ~G3 AFD :|2 ~G3 GFG ||


Tune 31	Setting 29972

